X: 7868
T: Compliments To Liz Carroll
R: jig
M: 6/8
K: Cmajor
d2 S|T c2 C CDG|FGA FBd|T c2 C CDG|FD_B, DCB,|
Tc2 B, CEG|FGA GBd|ceg fdB|1 ced ced:|2 c2 cef||
gag gec|T a2 b age|gag gec|Bdd fed|1
gag gec|T a2 b age|cde dcB|c3 cef:|2
Tc2 C CEG|FGA GBd|ceg fdB|c3 (c/d/e)d||

